!!!!SEGMENT: pl-wtm--a-22-544_gold-artur--dziewuszko-z-buzia-jak-jabluszko-niegdys-prababka-ewa.krn
!!!cenid: 19xx:2
!!!COM: Gold, Artur
!!!COM-rismID: pe50044903
!!!CDT: 1897/03/17-1943
!!!CNT: Polish
!!!OTL: Dziewuszko z buzią jak jabłuszko/Niegdyś prababka Ewa
!!!PDT:
!!!AGN: Secular
!!!YEC: Copyright 2022 Narodowy Instytut Fryderyka Chopina (https://polishscores.org)
!!!YEM: License CC-BY-4.0 (https://creativecommons.org/licenses/by/4.0)
!!!SMS-siglum: PL-Wtm
!!!SMS-shelfmark: A.22.544
!!!SMS-variant:
!!!SMS-altvar:
!!!SMS-shelfwork: W
!!!NIFC-rismSourceID: 1001210929
!!!NIFC-rismChildID: 1001210929
!!!NIFC-islandoraID: pl-wtm:94817
!!!URL-pdf-islandora: https://repozytorium.nifc.pl/islandora/object/pl-wtm%3A94817/datastream/PDF/view
!!!URL-scan: https://polish.musicsources.pl/pl/lokalizacje/galeria/druki-muzyczne/19709/2 @EN{Scan on Polish Music Sources Website} @PL{Skany w portalu Dziedzictwo Muzyki Polskiej w otwartym dostępie}
!!!IIIF:
!!!ONB-nifc:
!!!AIN: 2 piano 1 vox
!!!key:
**kern	**kern	**kern	**text	**text
*part3	*part2	*part1	*part1	*part1
*staff3	*staff2	*staff1	*staff1	*staff1
*I"FORTEPIAN.	*I"FORTEPIAN.	*I"ŚPIEW.	*	*
*I'[pf]	*I'[pf]	*I'[V]	*	*
*ICklav	*ICklav	*ICvox	*	*
*Ipiano	*Ipiano	*Ivox	*	*
*>[A,A1,A,A2]	*>[A,A1,A,A2]	*>[A,A1,A,A2]	*>[A,A1,A,A2]	*>[A,A1,A,A2]
*clefF4	*clefG2	*clefG2	*	*
*k[b-e-a-]	*k[b-e-a-]	*k[b-e-a-]	*	*
*C:	*C:	*C:	*	*
*M4/4	*M4/4	*M4/4	*	*
*met(c)	*met(c)	*met(c)	*	*
=1	=1	=1	=1	=1
*>A	*>A	*>A	*>A	*>A
!	!	!LO:TX:a:B:t=Tempo Slow foxa.	!	!
2C\ 2c	2e-/ 2g 2cc 2ee-	1r	.	.
2BB-\ 2B-	2d/ 2g 2dd	.	.	.
=2	=2	=2	=2	=2
2AA-\ 2A-	2c/ 2e- 2a- 2cc	1r	.	.
2GG/ 2G	2B-/ 2e- 2b-	.	.	.
=3	=3	=3	=3	=3
*	*^	*	*	*
2FF/ 2F	8a-/L	2c\ 2d	1r	.	.
.	8g/J	.	.	.	.
.	2f/	.	.	.	.
2DD/ 2D	.	2A-\ 2c	.	.	.
.	4a-/	.	.	.	.
=4	=4	=4	=4	=4	=4
2GG/ 2D	2f/ 2g	4c\	1r	.	.
.	.	4An\	.	.	.
4GGG/	2re	4Bn\	.	.	.
4r	.	4G\	.	.	.
=5||	=5||	=5||	=5||	=5||	=5||
4CC/ 4C	2g/	4re	2g/	1. Nie-	2. Tu
4r	.	4G\ 4c 4e-	.	.	.
4GG/	[2e-/	4re	2e-/	-gdyś	ja,
4r	.	4G\ 4c	.	.	.
=6	=6	=6	=6	=6	=6
4FF/ 4C	8.e-/L]	4A-\ 4c	8.r	.	.
.	16d/K	.	16d/	pra-	tam
4r	8.e-/	4re	8.e-/	-bab-	sto-
.	16f/Jk	.	16f/	-ka	-i
4r	4e-/	4re	4e-/	E-	o-
4GG/ 4F	4d/	4Bn\	4d/	-wa	-na,
!!LO:LB:g=original	!	!	!	!	!
=7	=7	=7	=7	=7	=7
4CC/ 4C	2g/	4re	2g/	Jabł-	Jak
4r	.	4G\ 4c 4e-	.	.	.
4GG/	[>2e-/	4re	2e-/	-ko	lis
4r	.	4G\ 4c	.	.	.
=8	=8	=8	=8	=8	=8
4FF/ 4C	8.e-/L]	4A-\ 4c	8.r	.	.
.	16d/K	.	16d/	zer-	i
4r	8.e-/	4re	8.e-/	-wa-	wi-
.	16f/Jk	.	16f/	-ła	-no-
4r	4e-/	4re	4e-/	z drze-	-gro-
4GG/ 4F	4d/	4Bn\	4d/	-wa,	-na,
=9	=9	=9	=9	=9	=9
4CC/ 4C	2g/	4re	2g/	Od-	Ust
4r	.	4c\ 4e-	.	.	.
4AAA-/ 4AA-	2cc/	4rg	2cc\	-tąd	o-
4r	.	4e-\ 4a-	.	.	.
=10	=10	=10	=10	=10	=10
4GG/	2b-/	4re	2b-/	w ra-	-wo-
4r	.	4B-\ 4e-	.	.	.
4EE-/ 4E-	2g/	4re	2g/	-ju	-ce
4r	.	4B-\ 4e-	.	.	.
=11	=11	=11	=11	=11	=11
4FF/ 4C	8.a-/L	4re	8.a-/	jej	pra-
.	16g/Jk	.	16g/	nie	-gnę
4r	2f/	4A-\ 4c 4d	2f/	chcia-	zer-
4DD/ 4D	.	4re	.	.	.
4r	4a-/	4c\ 4f	4a-/	-no	-wać
=12	=12	=12	=12	=12	=12
2GG/	1g	4c\ 4f	1g	znać.	sam,
.	.	4An\	.	.	.
4GGG/	.	4F\ 4Bn	.	.	.
4r	.	4G\	.	.	.
!!LO:LB:g=original	!	!	!	!	!
=13	=13	=13	=13	=13	=13
4CC/ 4C	2g/	4re	2g/	W o-	Nę-
4r	.	4G\ 4c 4e-	.	.	.
4GG/	[2e-/	4re	2e-/	-gród	-cą
4r	.	4G\ 4c	.	.	.
=14	=14	=14	=14	=14	=14
4FF/ 4C	8.e-/L]	4A-\ 4c	8.r	.	.
.	16d/K	.	16d/	nie	jej
4r	8.e-/	4re	8.e-/	szła	po-
.	16f/Jk	.	16f/	na-	-ma-
4r	4e-/	4re	4e-/	-u-	-rań-
4GG/ 4F	4d/	4Bn\	4d/	-ka,	-cze,
=15	=15	=15	=15	=15	=15
4CC/ 4C	2g/	4re	2g/	Więc	Lecz
4r	.	4G\ 4c 4e-	.	.	.
4GG/	[2e-/	4re	2e-/	też	choć
4r	.	4G\ 4c	.	.	.
=16	=16	=16	=16	=16	=16
4FF/ 4C	8.e-/L]	4A-\ 4c	8.r	.	.
.	16d/K	.	16d/	każ-	w ko-
4r	8.e-/	4re	8.e-/	-dy	-ło
.	16f/Jk	.	16f/	dziś	nich
4r	4e-/	4re	4e-/	szu-	tań-
4GG/ 4F	4d/	4Bn\	4d/	-ka,	-czę,
=17	=17	=17	=17	=17	=17
2C\ 2G	2g/	4re	2g/	Gdzie	Tru-
.	.	4c\ 4e-	.	.	.
2C\ 2An	2ee-/	4rg	2ee-\	tu	-dny
.	.	4e-\ 4g 4cc	.	.	.
!!LO:LB:g=original	!	!	!	!	!
=18	=18	=18	=18	=18	=18
4D\ 4B-	2dd/	4r	2dd\	o-	o-
4r	.	4d\ 4g 4b-	.	.	.
4DD/ 4D	2b-/	4r	2b-\	-woc	-rzech
4r	.	4B-\ 4d 4g	.	.	.
=19	=19	=19	=19	=19	=19
4FF#X/ 4F#X	8.an/L	4r	8.an/	za-	do
.	16b-/Jk	.	16b-/	-ka-	zgry-
4r	2cc/	4d\ 4an	2cc\	-za-	-zie-
4DD/ 4D	.	4r	.	.	.
4r	4dd/	4f#X\ 4cc	4dd\	-ny	-nia-
=20	=20	=20	=20	=20	=20
4GG/ 4D	4g/	4B-\ 4dn	4g/	rwać	-mam.
4r	4g/	4r	4g/	1.2. Ach,	.
2GG/ 2F	4.bn/	2d#X\ 2g	4.bn/	daj,	.
.	8an/	.	8an/	dzie-	.
*	*v	*v	*	*	*
*kcancel	*kcancel	*kcancel	*	*
=21!|:	=21!|:	=21!|:	=21!|:	=21!|:
*k[]	*k[]	*k[]	*	*
*	*^	*	*	*
!!LO:TX:t=P:problem: kcancel po znaku repetycji	!	!	!	!	!
4CC/ 4C	2a/	4r	2a/	-wu-	.
4r	.	4c\ 4e	.	.	.
4GG/	[2g/	4r	2g/	-szko,	.
4r	.	4c\ 4e	.	.	.
=22	=22	=22	=22	=22	=22
4CC/ 4C	4g/]	4r	4r	.	.
4r	8.g/L	4c\ 4e	8.g/	Ma-	.
.	16a/Jk	.	16a/	-łą,	.
4EE/ 4E	8.b/L	4c\ 4g	8.b\	bu-	.
.	16cc/K	.	16cc\	-zię	.
4EE-X/ 4E-X	8.a/	4c\ 4f#X	8.a/	jak	.
.	16b/Jk	.	16b/	ja-	.
!!LO:LB:g=original	!	!	!	!	!
=23	=23	=23	=23	=23	=23
4DD/ 4D	2a/	4r	2a/	-błu-	.
4r	.	4c\ 4fn	.	.	.
4GG/	[2g/	4r	2g/	-szko,	.
4r	.	4B\ 4f	.	.	.
=24	=24	=24	=24	=24	=24
4DD/ 4D	4g/]	4r	4r	.	.
4r	8.g/L	4B\ 4f	8.g/	Chodź,	.
.	16a/Jk	.	16a/	to	.
4DD/ 4D	8.b/L	4B\ 4f	8.b\	po-	.
.	16cc/K	.	16cc\	-wiem	.
4EE-X/ 4E-X	8.a/	4c\ 4f#X	8.a/	ci	.
.	16b/Jk	.	16b/	na	.
=25	=25	=25	=25	=25	=25
4DD/ 4D	2a/	4rg	2a/	u-	.
4r	.	4B\ 4fn	.	.	.
4GGG/ 4GG	[2g/	4rg	2g/	-szko:	.
4r	.	4B\ 4f	.	.	.
*	*v	*v	*	*	*
=26	=26	=26	=26	=26
4GG/	4g/]	4r	.	.
4G\	4g\ 4b 4ee	4ee\	"Ja	.
4F#X\	4d/ 4a 4dd	4dd\	ko-	.
4Fn\	4d#X/ 4g 4b	4b\	-cham	.
=27	=27	=27	=27	=27
*	*^	*	*	*
4CC/ 4GG 4E	(1a	4rg	1a	cię!"	.
4r	.	4c\ 4e 4g	.	.	.
4GGG/ 4GG	.	8.B\L 8.e 8.g	.	.	.
.	.	16c\Jk	.	.	.
4r	.	8.A\L 8.d#X 8.g	.	.	.
.	.	16B\Jk	.	.	.
!!LO:PB:g=original	!	!	!	!	!
=28	=28	=28	=28	=28	=28
4CC/ 4C	4a/)	4G\ 4c 4e 4g	4r	.	.
4r	4g/	4ryy	4g/	Ach,	.
2GG/ 2F	4.b/	2d#X\ 2g	4.b/	pójdź	.
.	8a/	.	8a/	ko-	.
=29	=29	=29	=29	=29	=29
4CC/ 4C	2a/	4r	2a/	-cha-	.
4r	.	4c\ 4e	.	.	.
4GG/	[2g/	4r	2g/	-nie,	.
4r	.	4c\ 4e	.	.	.
=30	=30	=30	=30	=30	=30
4CC/ 4C	4g/]	4r	4r	.	.
4r	8.g/L	4c\ 4e	8.g/	Bo	.
.	16a/Jk	.	16a/	nic	.
4GG/	8.b/L	4r	8.b\	złe-	.
.	16cc/K	.	16cc\	-go	.
4r	8.dd/	4e\ 4g	8.dd\	się	.
.	16cc/Jk	.	16cc\	nie	.
=31	=31	=31	=31	=31	=31
4BBB/ 4BB	2ee/	4r	2ee\	sta-	.
4r	.	4e\ 4g 4b	.	.	.
4GG/ 4G	[2b/	4r	2b\	-nie	.
4r	.	4B\ 4e	.	.	.
=32	=32	=32	=32	=32	=32
4EE/ 4E	4b/]	4r	4r	.	.
4r	8.b/L	4e\ 4g	8.b\	Je-	.
.	16b/Jk	.	16b\	-śli	.
4BBB/ 4BB	8.a#X/L	4r	8.a#X/	słod-	.
.	16b/K	.	16b/	-kie	.
4r	8.dd/	4e\ 4g	8.dd\	ca-	.
.	16cc/Jk	.	16cc\	-ło-	.
!!LO:LB:g=original	!	!	!	!	!
=33	=33	=33	=33	=33	=33
4DD#X/ 4D#X	2cc/	4r	2cc\	-wa-	.
4r	.	4f#X\ 4a	.	.	.
4BBB/ 4BB	[2b/	4r	2b\	-nie	.
4r	.	4f#\ 4a	.	.	.
=34	=34	=34	=34	=34	=34
4DD#X/ 4D#X	4b/]	4r	4r	.	.
4r	8.f#X/L	4A\ 4B	8.f#X/	Z to-	.
.	16g/Jk	.	16g/	-bą	.
4BBB/ 4BB	8.a/L	4r	8.a/	dziś	.
.	16b/	.	16b/	po-	.
4r	8.ddn/	4f#\ 4a	8.ddn\	-łą-	.
.	16cc/Jk	.	16cc\	-czy	.
=35	=35	=35	=35	=35	=35
4EE/ 4E	1b	4r	1b	mnie!	.
4r	.	4B\ 4e 4g	.	.	.
4BBB/ 4BB	.	4r	.	.	.
4r	.	4B\ 4e 4g	.	.	.
=36	=36	=36	=36	=36	=36
4DD/ 4D	4r	4ryy	4r	.	.
4r	4g/	4B\ 4f	4g/	Śpie-	.
4GG/	4a/	4r	4a/	-wa-	.
4r	4g/	4B\ 4f	4g/	-ją	.
=37	=37	=37	=37	=37	=37
4CC/ 4C	2cc/	4r	2cc\	drze-	.
4r	.	4e\ 4b-X	.	.	.
4GG/	[2cc/	4r	2cc\	-wa	.
4r	.	4e\ 4b-	.	.	.
!!LO:LB:g=original	!	!	!	!	!
=38	=38	=38	=38	=38	=38
4EE/ 4E	4cc/]	4r	4r	.	.
4r	4dd/	4g\ 4b-X	4dd\	W je-	.
4CC/ 4C	4cc/	4r	4cc\	-sien-	.
4r	4a/	4B-X\ 4e	4a/	-ną	.
=39	=39	=39	=39	=39	=39
4FF/ 4C	[1g	4rg	1g	noc	.
4r	.	4A\ 4c	.	.	.
4CC/ 4C	.	4A\ 4d	.	.	.
4r	.	4A\ 4c	.	.	.
=40	=40	=40	=40	=40	=40
4FF/ 4C	4g/]	4A\ 4d	4r	.	.
4r	4f/	4A\ 4c	4f/	I	.
4CC/ 4C	4g/	4re	4g/	w nas	.
4r	4f/	4A\ 4c	4f/	doj-	.
=41	=41	=41	=41	=41	=41
4EE/ 4E	2a/	4re	2a/	-rze-	.
4r	.	4c#X\ 4g	.	.	.
4AA/	[2a/	4re	2a/	-wa	.
4r	.	4c#\ 4g	.	.	.
=42	=42	=42	=42	=42	=42
4EE/ 4E	4a/]	4re	4r	.	.
4r	4b-X/	4c#X\ 4g	4b-X/	Mi-	.
4AA/	4a/	4re	4a/	-ło-	.
4r	4e/	4G\ 4c#	4e/	-ści	.
=43	=43	=43	=43	=43	=43
4AA/	[1d	4re	1d	moc.	.
4r	.	4F#X\ 4cn	.	.	.
4AA-X/	.	4re	.	.	.
4r	.	4F#\ 4c	.	.	.
!!LO:LB:g=original	!	!	!	!	!
=44	=44	=44	=44	=44	=44
4GG/	4d/]	4Fn\ 4B	4r	.	.
4r	4g/	4re	4g/	Ach,	.
2GG/ 2F	4.b/	2d#X\ 2g	4.b/	daj,	.
.	8a/	.	8a/	dzie-	.
=45	=45	=45	=45	=45	=45
4CC/ 4C	2a/	4r	2a/	-wu-	.
4r	.	4c\ 4e	.	.	.
4GG/	[>2g/	4r	2g/	-szko,	.
4r	.	4c\ 4e	.	.	.
=46	=46	=46	=46	=46	=46
4CC/ 4C	4r	4g/]	4r	.	.
4r	8.g/L	4c\ 4e	8.g/	Ma-	.
.	16a/Jk	.	16a/	-łą	.
4EE/ 4E	8.b/L	4B\ 4g	8.b\	bu-	.
.	16cc/K	.	16cc\	-zię	.
4EE/ 4E	8.a/	4c\ 4f#X	8.a/	jak	.
.	16b/Jk	.	16b/	ja-	.
=47	=47	=47	=47	=47	=47
4DD/ 4D	2a/	4rg	2a/	-błu-	.
4r	.	4B\ 4fn	.	.	.
4GG/	[2g/	4rg	2g/	-szko,	.
4r	.	4B\ 4f	.	.	.
=48	=48	=48	=48	=48	=48
4DD/ 4D	4g/]	4rg	4r	.	.
4r	8.g/L	4B\ 4f	8.g/	Chodź,	.
.	16a/Jk	.	16a/	to	.
4DD/ 4D	8.b/L	4B\ 4f	8.b\	po-	.
.	16cc/K	.	16cc\	-wiem	.
4EE-X/ 4E-X	8.a/	4c\ 4f#X	8.a/	ci	.
.	16b/Jk	.	16b/	na	.
!!LO:LB:g=original	!	!	!	!	!
=49	=49	=49	=49	=49	=49
4DD/ 4D	2a/	4r	2a/	u-	.
4r	.	4B\ 4fn	.	.	.
4GG/	[2g/	4r	2g/	-szko	.
4r	.	4B\ 4f	.	.	.
=50	=50	=50	=50	=50	=50
4DD/ 4D	8.g/L]	4r	8.r	.	.
.	16a/K	.	16a/	Jak	.
4r	8.b/	4f\ 4g	8.b\	bar-	.
.	16dd/Jk	.	16dd\	-dzo	.
2GG/ 2F	4gg/	4g\ 4b 4ee	4gg\	ko-	.
.	4ee/	4f\ 4g 4b	4ee\	-cham	.
=51	=51	=51	=51	=51	=51
*>A1	*>A1	*>A1	*>A1	*>A1	*>A1
2C\ 2G	4cc/	2e\ 2g	4cc\	cię!	.
.	4b/	.	4r	.	.
2E-X\ 2A	4dd/	2f#X\	2r	.	.
.	4cc/	.	.	.	.
=52	=52	=52	=52	=52	=52
2D\ 2c	4a/	2d\ 2fn	4r	.	.
.	4g/	.	4g/	Ach,	.
2GG/ 2F	4.b/	2d#X\ 2g	4.b\	daj,	.
.	8a/	.	8a/	dzie	.
=53:|!	=53:|!	=53:|!	=53:|!	=53:|!	=53:|!
*>A2	*>A2	*>A2	*>A2	*>A2	*>A2
2C\ 2G	4cc/	2e\ 2g	[1cc	cię!	.
.	4dd/	.	.	.	.
2AA-X/ 2E-X	4ee-X/	2g-X\ 2b-X	.	.	.
.	4ff/	.	.	.	.
*	*v	*v	*	*	*
=54	=54	=54	=54	=54
4r	4r	4cc\]	.	.
2.CC;:/ 2.GG: 2.En:	2.gn;\ 2.cc 2.een 2.gg	4r	.	.
.	.	2r	.	.
==	==	==	==	==
*-	*-	*-	*-	*-
!!!system-decoration: s1{(s2,s3)}
!!!RDF**kern: > = above
!!!RDF**kern: < = below
!!!ENC: Berenika Jozajtis
!!!END: 2023-08-22
!!!ENC: Jan Barakat
!!!END: 2023-09-16
